packages/sights/assets/overlays/3a3OheoD.svg

<svg width="500" height="375" viewBox="0 0 500 375" fill="none" xmlns="http://www.w3.org/2000/svg">
<path d="M378.14 42.0344C381.9 24.0344 192.35 40.5444 192.35 40.5444C178.02 41.5444 173.66 43.8644 173.66 43.8644C167.66 45.9344 147.98 67.0244 147.98 67.0244L163.42 144.454C163.42 144.454 182.68 149.654 253.3 145.984C253.3 145.984 444.91 123.354 427.951 105.834" stroke="white" stroke-linejoin="round"/>
<path d="M126.711 169.755C126.711 169.755 133.711 163.105 155.551 173.425C155.551 173.425 174.811 180.755 193.611 180.985C193.611 180.985 244.741 183.515 257.811 180.985C257.811 180.985 284.641 178.155 291.061 187.365V191.535C291.061 191.535 277.061 214.695 264.001 216.985C264.001 216.985 241.761 219.735 232.131 221.985C232.131 221.985 224.131 223.355 206.451 235.745C206.451 235.745 160.361 241.245 137.201 221.985L126.711 169.755Z" stroke="white" stroke-linejoin="round"/>
<path d="M451.591 123.625C451.591 123.625 457.321 127.975 450.441 134.625C450.441 134.625 441.731 140.475 444.601 146.205C444.601 146.205 445.291 148.385 443.451 149.205L440.811 151.725C440.811 151.725 444.141 163.185 446.811 164.215H448.871C448.871 164.215 458.381 158.985 459.701 156.955" stroke="white" stroke-linejoin="round"/>
<path d="M174.34 178.715L163.42 144.455C163.42 144.455 153.71 141.775 151.07 138.335C151.07 138.335 140.41 66.105 138.12 59.915C135.667 53.3743 131.212 47.7748 125.39 43.915C125.39 43.915 106.7 30.455 90.7694 32.055C90.7694 32.055 80.7694 32.975 77.0094 46.965C77.0094 46.965 69.3294 69.895 70.0094 80.665C83.3097 94.7639 98.745 106.683 115.75 115.985L118.85 40.775V40.125" stroke="white" stroke-linejoin="round"/>
<path d="M214.041 260.264C214.041 260.264 233.281 278.214 247.491 275.454C247.491 275.454 368.111 250.544 440.791 204.074C440.791 204.074 451.421 183.124 452.341 175.484L456.161 172.734L458.161 204.984C458.621 214.164 456.161 215.844 456.161 215.844C294.731 303.434 253.161 293.194 253.161 293.194C240.161 292.884 208.901 254.134 208.901 254.134L206.461 235.794" stroke="white" stroke-linejoin="round"/>
<path d="M324.539 287.385V307.565L418.549 263.075V246.795" stroke="white" stroke-linejoin="round"/>
<path d="M228.24 361.055C228.24 361.055 257.35 344.935 261.48 338.975L265.15 332.975C265.15 332.975 301.15 294.905 313.76 290.555C313.76 290.555 412.82 251.345 431.39 240.335C431.39 240.335 438.62 236.335 439.88 241.715L443.94 258.625" stroke="white" stroke-linejoin="round"/>
<path d="M79.8105 35.5348C79.8105 35.5348 84.2306 28.4248 96.1606 27.9648C96.1606 27.9648 129.02 28.5848 144.16 52.7348L147.98 67.0248C162.2 51.9648 173.81 51.5148 173.81 51.5148C223.04 44.1748 343.19 43.2548 343.19 43.2548C365.05 42.7948 371.01 45.3948 371.01 45.3948L377.13 51.5148" stroke="white" stroke-linejoin="round"/>
<path d="M95.1309 31.9746C95.1309 31.9746 82.7909 72.4846 81.1309 91.4846" stroke="white" stroke-linejoin="round"/>
<path d="M59.8096 83.0755L57.5196 85.2555L53.8496 94.5455L54.5796 102.035C54.5796 102.035 70.1696 171.355 74.2996 174.415C74.2996 174.415 86.6796 217.065 99.3696 233.265C99.3696 233.265 89.5096 203.845 89.9696 201.165C89.9696 201.165 99.8296 206.665 141.1 334.615C141.1 334.615 163.1 361.675 193.84 361.675C193.84 361.675 235.57 362.595 276.39 356.675C276.39 356.675 393.79 309.435 435.52 273.675C435.52 273.675 454.32 245.245 452.03 227.355C452.03 227.355 467.16 214.055 463.95 198.925L456.16 172.785L464.4 135.625V127.835L451.59 123.625C451.59 123.625 425.91 104.365 424.99 103.445L377.15 51.4455C377.15 51.4455 378.98 41.3555 377.76 36.4455L374.09 32.1655C374.09 32.1655 255.75 -0.614519 104.87 19.5655C95.3425 20.9655 86.7198 25.9788 80.7896 33.5655C80.7896 33.5655 71.5896 50.7455 67.9496 76.4255" stroke="white" stroke-linejoin="round"/>
<path d="M70.88 81.6259L68.72 82.0159C68.72 82.0159 48.84 84.3159 43.27 83.0859C43.27 83.0859 38.27 81.6359 36 72.3159C36 72.3159 47.09 61.7659 60.69 64.5159L64.21 67.7259L64.28 77.8859C65.8409 77.569 67.3402 77.0017 68.72 76.2059L70.19 75.3859" stroke="white" stroke-linejoin="round"/>
<path d="M99.8105 219.346C99.8105 219.346 100.74 290.626 136.05 353.426L137.58 353.876L153.58 346.396" stroke="white" stroke-linejoin="round"/>
</svg>

<svg width="500" height="375" fill="none" xmlns="http://www.w3.org/2000/svg"><path d="M378.14 42.034c3.76-18-185.79-1.49-185.79-1.49-14.33 1-18.69 3.32-18.69 3.32-6 2.07-25.68 23.16-25.68 23.16l15.44 77.43s19.26 5.2 89.88 1.53c0 0 191.61-22.63 174.651-40.15M126.711 169.755s7-6.65 28.84 3.67c0 0 19.26 7.33 38.06 7.56 0 0 51.13 2.53 64.2 0 0 0 26.83-2.83 33.25 6.38v4.17s-14 23.16-27.06 25.45c0 0-22.24 2.75-31.87 5 0 0-8 1.37-25.68 13.76 0 0-46.09 5.5-69.25-13.76l-10.49-52.23ZM451.591 123.625s5.73 4.35-1.15 11c0 0-8.71 5.85-5.84 11.58 0 0 .69 2.18-1.15 3l-2.64 2.52s3.33 11.46 6 12.49h2.06s9.51-5.23 10.83-7.26" stroke="#fff" stroke-linejoin="round"/><path d="m174.34 178.715-10.92-34.26s-9.71-2.68-12.35-6.12c0 0-10.66-72.23-12.95-78.42a33.173 33.173 0 0 0-12.73-16s-18.69-13.46-34.62-11.86c0 0-10 .92-13.76 14.91 0 0-7.68 22.93-7 33.7a184.81 184.81 0 0 0 45.74 35.32l3.1-75.21v-.65M214.041 260.264s19.24 17.95 33.45 15.19c0 0 120.62-24.91 193.3-71.38 0 0 10.63-20.95 11.55-28.59l3.82-2.75 2 32.25c.46 9.18-2 10.86-2 10.86-161.43 87.59-203 77.35-203 77.35-13-.31-44.26-39.06-44.26-39.06l-2.44-18.34M324.539 287.385v20.18l94.01-44.49v-16.28" stroke="#fff" stroke-linejoin="round"/><path d="M228.24 361.055s29.11-16.12 33.24-22.08l3.67-6s36-38.07 48.61-42.42c0 0 99.06-39.21 117.63-50.22 0 0 7.23-4 8.49 1.38l4.06 16.91M79.81 35.535s4.42-7.11 16.35-7.57c0 0 32.86.62 48 24.77l3.82 14.29c14.22-15.06 25.83-15.51 25.83-15.51 49.23-7.34 169.38-8.26 169.38-8.26 21.86-.46 27.82 2.14 27.82 2.14l6.12 6.12" stroke="#fff" stroke-linejoin="round"/><path d="M95.13 31.975s-12.34 40.51-14 59.51" stroke="#fff" stroke-linejoin="round"/><path d="m59.81 83.076-2.29 2.18-3.67 9.29.73 7.489s15.59 69.32 19.72 72.38c0 0 12.38 42.65 25.07 58.85 0 0-9.86-29.42-9.4-32.1 0 0 9.86 5.5 51.13 133.45 0 0 22 27.06 52.74 27.06 0 0 41.73.92 82.55-5 0 0 117.4-47.24 159.13-83 0 0 18.8-28.43 16.51-46.32 0 0 15.13-13.3 11.92-28.43l-7.79-26.14 8.24-37.16v-7.79l-12.81-4.21s-25.68-19.26-26.6-20.18l-47.84-52s1.83-10.09.61-15l-3.67-4.28s-118.34-32.78-269.22-12.6a37.48 37.48 0 0 0-24.08 14s-9.2 17.18-12.84 42.86" stroke="#fff" stroke-linejoin="round"/><path d="m70.88 81.626-2.16.39s-19.88 2.3-25.45 1.07c0 0-5-1.45-7.27-10.77 0 0 11.09-10.55 24.69-7.8l3.52 3.21.07 10.16c1.56-.317 3.06-.884 4.44-1.68l1.47-.82M99.81 219.346s.93 71.28 36.24 134.08l1.53.45 16-7.48" stroke="#fff" stroke-linejoin="round"/></svg>
